X: 101
T: koad houarn
C: jean-michel veillon
M: 4/4
L: 1/8
R: dans en dro
K: Edor
||B2Bc A2AB|G2GE FGFE|B2BB AGAB|GBGE F2zB|
BABc A2AB|G2GE FGFE|B2BB AGAB|GBGE F3G||
||EAGF E2GA|B2AB GAB2|EAGF E2GA|BEFG E3B|
|BAGF EFGA|B2AB GcB2|EAGF E2GA|BEFG E2z2||
